icon/gr/magic.svg

<svg xmlns="http://www.w3.org/2000/svg" width="24" height="24"><path fill="none" stroke="#000" stroke-width="2" d="m2.5 19.5 17-17 2 2-17 17-2-2Zm.5.5L15 8l1 1L4 21l-1-1ZM5.5 3l-.5.5.5.5.5-.5-.5-.5Zm6 0-.5.5.5.5.5-.5-.5-.5Zm-3 3-.5.5.5.5.5-.5-.5-.5Zm12 6-.5.5.5.5.5-.5-.5-.5Zm0 5-.5.5.5.5.5-.5-.5-.5Z"/></svg>

<svg xmlns="http://www.w3.org/2000/svg" viewBox="0 0 24 24" height="1em" width="1em">
  <path fill="none" stroke="#000" stroke-width="2" d="M2.5,19.5 L19.5,2.5 L21.5,4.5 L4.5,21.5 L2.5,19.5 Z M3,20 L15,8 L16,9 L4,21 L3,20 Z M5.5,3 L5,3.5 L5.5,4 L6,3.5 L5.5,3 Z M11.5,3 L11,3.5 L11.5,4 L12,3.5 L11.5,3 Z M8.5,6 L8,6.5 L8.5,7 L9,6.5 L8.5,6 Z M20.5,12 L20,12.5 L20.5,13 L21,12.5 L20.5,12 Z M20.5,17 L20,17.5 L20.5,18 L21,17.5 L20.5,17 Z"/>
</svg>
